X: 33
T: Bat Yiftach
C: Amitai Ne'eman 1950
O: Israel
I: Dance taught by Shlomo and Dina Bachar
M: 4/4
L: 1/8
Q: 1/4=160
K: Ador
|:"D"d3c d2e2   |"Am"cBc4Bc    |"G" dBcA B2G2     |[1"C"c4 "Am"e3c  :|[2"Am"A6z2       |
|:A2A2A2A2      |"G"dcB4AB     |"Am"cB A2 "Em"G2E2|"Am"A8           :|
  "D"d3c d2e2   |"Am"cBc4Bc    |dBcA "Em"B2G2     |[1"C"c4 e3c      :|[2"Am"A6z2       |
|:"G"G2G2 "Am"A4|"G"GFG2 "Am"A4|c3B c2d2          |"Em"B2G2 "Am"cBA2|
  "G"G2G2 "Am"A4|"G"GFG2 "Am"A4|[1 z2e2 "G"d2g2   |"Am"e8           :|[2 "Am" z2c2 B2A2|A2G2 A4|



